icons/svgs/chart-line-down-outline.svg

<svg width="24" height="24" viewBox="0 0 24 24" fill="none" xmlns="http://www.w3.org/2000/svg">
<path d="M4.5 4.5V17.625C4.5 17.9766 4.77344 18.25 5.125 18.25H20.75C21.4141 18.25 22 18.8359 22 19.5C22 20.2031 21.4141 20.75 20.75 20.75H5.125C3.36719 20.75 2 19.3828 2 17.625V4.5C2 3.83594 2.54688 3.25 3.25 3.25C3.91406 3.25 4.5 3.83594 4.5 4.5ZM12.9766 6.76562C13.4453 6.25781 14.2656 6.25781 14.7344 6.76562L17.8594 9.89062L19.1484 8.60156C19.7344 8.01562 20.75 8.44531 20.75 9.26562V13.5625C20.75 14.1094 20.3203 14.5 19.8125 14.5H15.5156C14.6562 14.5 14.2266 13.5234 14.8516 12.8984L16.1016 11.6484L13.875 9.42188L10.9844 12.2734C10.5156 12.7812 9.69531 12.7812 9.22656 12.2734L6.10156 9.14844C5.59375 8.67969 5.59375 7.85938 6.10156 7.39062C6.57031 6.88281 7.39062 6.88281 7.85938 7.39062L10.125 9.61719L12.9766 6.76562Z" fill="black"/>
</svg>

<svg xmlns="http://www.w3.org/2000/svg" width="24" height="24" fill="currentColor" class="icon-chart-line-down-outline" viewBox="0 0 24 24">
  <mask id="a" width="20" height="18" x="2" y="3" maskUnits="userSpaceOnUse" style="mask-type:alpha">
    <path d="M4.5 4.5v13.125c0 .352.273.625.625.625H20.75c.664 0 1.25.586 1.25 1.25 0 .703-.586 1.25-1.25 1.25H5.125C3.367 20.75 2 19.383 2 17.625V4.5c0-.664.547-1.25 1.25-1.25.664 0 1.25.586 1.25 1.25m8.477 2.266a1.205 1.205 0 0 1 1.757 0L17.86 9.89l1.29-1.29c.585-.585 1.601-.156 1.601.665v4.297c0 .546-.43.937-.937.937h-4.297c-.86 0-1.29-.977-.664-1.602l1.25-1.25-2.227-2.226-2.89 2.851a1.205 1.205 0 0 1-1.758 0L6.102 9.148a1.205 1.205 0 0 1 0-1.757 1.205 1.205 0 0 1 1.757 0l2.266 2.226z"/>
  </mask>
  <g mask="url(#a)">
    <path d="M0 0h24v24H0z"/>
  </g>
</svg>
